X:215
T:score290
L:1/16
Q:1/4=120
M:2/4
I:linebreak $
K:A
 A2AA AEDE | A2AA ABcB | A2AA BAGA | B8 | d2dd dA=GA | d2dd defe | d2dc B2BA | G8 | A2AA AEDE | %9
 A2AA ABcB | A2AA BAGA | B8 | e2ee ed=cd | e2ee ed=cd | e2EF G2E^c | B4 A2 z2 |] %16
